X:1
T: The Flowers of Dungarvan
C:
R:Jig
Q:180
K:D
M:6/8
L:1/16
G2|A2F2D2 D2d2B2|A2d2F2 F2E2D2|B2c2d2 g2e2d2|c2A2A2 A4B2|A2B2G2 F2E2D2|B2d2B2 A2B2c2|d2f2a2 g2f2e2|f2d2d2 d4G2|
A2F2D2 D2d2B2|A2d2F2 F2E2D2|B2c2d2 g2e2d2|c2A2A2 A4B2|A2B2G2 F2E2D2|B2d2B2 A2B2c2|d2f2a2 g2f2e2|f2d2d2 d4e2|
f2e2d2 a2f2d2|e2d2c2 B2c2d2|A2F2A2 D2a2f2|g2f2g2 e4a2|f2e2d2 e2c2A2|d2A2G2 F2G2A2|B2c2d2 e2a2g2|f2d2d2 d4e2|
f2e2d2 a2f2d2|e2d2c2 B2c2d2|A2F2A2 D2a2f2|g2f2g2 e4a2|f2e2d2 e2c2A2|d2A2G2 F2G2A2|B2c2d2 e2a2g2|f2d2d2 d4||
